X:1
T:Cross Road
R:reel
B:Ryan's Mammoth Collection
N: 269
Z: Contributed by Ray Davies,  ray:davies99.freeserve.co.uk
M:C|
L:1/8
K:Bdor
u(dc)|:\
BE((3FED) Bdcd | BE((3FED) B2Ac | BE((3FED) FABc | d2(cd) (Bd)(cd) |
BE((3FED) (Bd)(cd) | BE((3FED) B2(Ac) | BE((3FED) FABc | \
dBcA (BE)Ez :|
|:uB|\
B"4"ee=g fdec | B"4"eec d2cA | B"4"ee=g fdec | dBcA (BE)Ez |
B"4"ee=g fdec | B"4"eec def=g | af=ge fdec | dBcA (BE)E:|
